icons/laptop-add.svg

<svg width="24" height="24" viewBox="0 0 24 24" fill="none" xmlns="http://www.w3.org/2000/svg">
<path fill-rule="evenodd" clip-rule="evenodd" d="M4.34998 6.89999C4.34998 5.71421 5.31418 4.75 6.49997 4.75H17.5C18.6858 4.75 19.65 5.71422 19.65 6.89999V16.25H4.34998V6.89999ZM2.84998 16.3509V6.89999C2.84998 4.88578 4.48576 3.25 6.49997 3.25H17.5C19.5142 3.25 21.15 4.88577 21.15 6.89999V16.3509C22.0619 16.6393 22.75 17.5104 22.75 18.5C22.75 19.7142 21.7142 20.75 20.5 20.75H3.5C2.28579 20.75 1.25 19.7142 1.25 18.5C1.25 17.5104 1.93805 16.6393 2.84998 16.3509ZM3.5 17.75C3.11421 17.75 2.75 18.1142 2.75 18.5C2.75 18.8858 3.11421 19.25 3.5 19.25H20.5C20.8858 19.25 21.25 18.8858 21.25 18.5C21.25 18.1142 20.8858 17.75 20.5 17.75H3.5ZM12.4 7.25C12.8142 7.25 13.15 7.58579 13.15 8V9.65002H14.9C15.3142 9.65002 15.65 9.98581 15.65 10.4C15.65 10.8142 15.3142 11.15 14.9 11.15H13.15V12.9C13.15 13.3142 12.8142 13.65 12.4 13.65C11.9858 13.65 11.65 13.3142 11.65 12.9V11.15H10C9.58579 11.15 9.25 10.8142 9.25 10.4C9.25 9.98581 9.58579 9.65002 10 9.65002H11.65V8C11.65 7.58579 11.9858 7.25 12.4 7.25Z" fill="black"/>
</svg>

<svg xmlns="http://www.w3.org/2000/svg" fill="none" viewBox="0 0 24 24">
  <path fill="#000" fill-rule="evenodd" d="M4.35 6.9c0-1.186.964-2.15 2.15-2.15h11c1.186 0 2.15.964 2.15 2.15v9.35H4.35V6.9Zm-1.5 9.45V6.9A3.652 3.652 0 0 1 6.5 3.25h11a3.652 3.652 0 0 1 3.65 3.65v9.45c.912.29 1.6 1.16 1.6 2.15 0 1.214-1.036 2.25-2.25 2.25h-17c-1.214 0-2.25-1.036-2.25-2.25 0-.99.688-1.86 1.6-2.15Zm.65 1.4c-.386 0-.75.364-.75.75s.364.75.75.75h17c.386 0 .75-.364.75-.75s-.364-.75-.75-.75h-17Zm8.9-10.5a.75.75 0 0 1 .75.75v1.65h1.75a.75.75 0 0 1 0 1.5h-1.75v1.75a.75.75 0 0 1-1.5 0v-1.75H10a.75.75 0 0 1 0-1.5h1.65V8a.75.75 0 0 1 .75-.75Z" clip-rule="evenodd"/>
</svg>
